packages/elvis-assets-icons/icons/svg/src/calendar.svg

<svg width="24" height="24" viewBox="0 0 24 24" fill="none" xmlns="http://www.w3.org/2000/svg">
<g clip-path="url(#clip0)">
<path d="M2.25134 24C1.01034 24 0.00133514 22.991 0.00133514 21.75V5.25C0.00133514 4.009 1.01034 3 2.25134 3H6.00134V0.75C6.00134 0.336 6.33734 0 6.75134 0C7.16534 0 7.50134 0.336 7.50134 0.75V3H16.5013V0.75C16.5013 0.336 16.8373 0 17.2513 0C17.6653 0 18.0013 0.336 18.0013 0.75V3H21.7513C22.9923 3 24.0013 4.009 24.0013 5.25V21.75C24.0013 22.991 22.9923 24 21.7513 24H2.25134ZM1.50134 21.75C1.50134 22.164 1.83734 22.5 2.25134 22.5H21.7513C22.1653 22.5 22.5013 22.164 22.5013 21.75V10.5H1.50134V21.75ZM22.5013 9.00001V5.25C22.5013 4.836 22.1653 4.5 21.7513 4.5H18.0013V6C18.0013 6.414 17.6653 6.75 17.2513 6.75C16.8373 6.75 16.5013 6.414 16.5013 6V4.5H7.50134V6C7.50134 6.414 7.16534 6.75 6.75134 6.75C6.33734 6.75 6.00134 6.414 6.00134 6V4.5H2.25134C1.83734 4.5 1.50134 4.836 1.50134 5.25V9.00001H22.5013Z" fill="black"/>
<rect x="3" y="19.5" width="6" height="1.5" rx="0.75" fill="black"/>
</g>
<defs>
<clipPath id="clip0">
<path d="M0 0H24V24H0V0Z" fill="white"/>
</clipPath>
</defs>
</svg>

<svg width="24" height="24" fill="none" xmlns="http://www.w3.org/2000/svg"><g clip-path="url(#clip0)" fill="#000"><path d="M2.251 24a2.252 2.252 0 01-2.25-2.25V5.25A2.252 2.252 0 012.251 3h3.75V.75a.75.75 0 011.5 0V3h9V.75a.75.75 0 011.5 0V3h3.75a2.252 2.252 0 012.25 2.25v16.5a2.252 2.252 0 01-2.25 2.25h-19.5zm-.75-2.25c0 .414.336.75.75.75h19.5a.75.75 0 00.75-.75V10.5h-21v11.25zm21-12.75V5.25a.75.75 0 00-.75-.75h-3.75V6a.75.75 0 01-1.5 0V4.5h-9V6a.75.75 0 01-1.5 0V4.5h-3.75a.75.75 0 00-.75.75V9h21z"/><rect x="3" y="19.5" width="6" height="1.5" rx=".75"/></g><defs><clipPath id="clip0"><path d="M0 0h24v24H0V0z" fill="#fff"/></clipPath></defs></svg>
